X: 41
T: Betty Patton
M:4/4
R:reel
L:1/8
Z:added by Alf 
K:G
| G2GG G2A2|B2BB B2d2|e2d2 B2G2|B2A2 A4|
G2GG G2A2|B2BB B2d2|e2d2 c2F2|A2G2 G2d2:|
|:g4 d3d|e2d2 B2d2|e2d2 B2G2|B2A2 A2d2|
G2GG G2A2|B2BB B2d2|e2d2 c2F2|A2G2 G4:|
